LUTs/inverted/inverted_65.cube
TITLE "LUT"
LUT_3D_SIZE 5
1.000000 1.000000 1.000000
0.749020 1.000000 1.000000
0.498039 1.000000 1.000000
0.250980 1.000000 1.000000
0.000000 1.000000 1.000000
1.000000 0.749020 1.000000
0.749020 0.749020 1.000000
0.498039 0.749020 1.000000
0.250980 0.749020 1.000000
0.000000 0.749020 1.000000
1.000000 0.498039 1.000000
0.749020 0.498039 1.000000
0.498039 0.498039 1.000000
0.250980 0.498039 1.000000
0.000000 0.498039 1.000000
1.000000 0.250980 1.000000
0.749020 0.250980 1.000000
0.498039 0.250980 1.000000
0.250980 0.250980 1.000000
0.000000 0.250980 1.000000
1.000000 0.000000 1.000000
0.749020 0.000000 1.000000
0.498039 0.000000 1.000000
0.250980 0.000000 1.000000
0.000000 0.000000 1.000000
1.000000 1.000000 0.749020
0.749020 1.000000 0.749020
0.498039 1.000000 0.749020
0.250980 1.000000 0.749020
0.000000 1.000000 0.749020
1.000000 0.749020 0.749020
0.749020 0.749020 0.749020
0.498039 0.749020 0.749020
0.250980 0.749020 0.749020
0.000000 0.749020 0.749020
1.000000 0.498039 0.749020
0.749020 0.498039 0.749020
0.498039 0.498039 0.749020
0.250980 0.498039 0.749020
0.000000 0.498039 0.749020
1.000000 0.250980 0.749020
0.749020 0.250980 0.749020
0.498039 0.250980 0.749020
0.250980 0.250980 0.749020
0.000000 0.250980 0.749020
1.000000 0.000000 0.749020
0.749020 0.000000 0.749020
0.498039 0.000000 0.749020
0.250980 0.000000 0.749020
0.000000 0.000000 0.749020
1.000000 1.000000 0.498039
0.749020 1.000000 0.498039
0.498039 1.000000 0.498039
0.250980 1.000000 0.498039
0.000000 1.000000 0.498039
1.000000 0.749020 0.498039
0.749020 0.749020 0.498039
0.498039 0.749020 0.498039
0.250980 0.749020 0.498039
0.000000 0.749020 0.498039
1.000000 0.498039 0.498039
0.749020 0.498039 0.498039
0.498039 0.498039 0.498039
0.250980 0.498039 0.498039
0.000000 0.498039 0.498039
1.000000 0.250980 0.498039
0.749020 0.250980 0.498039
0.498039 0.250980 0.498039
0.250980 0.250980 0.498039
0.000000 0.250980 0.498039
1.000000 0.000000 0.498039
0.749020 0.000000 0.498039
0.498039 0.000000 0.498039
0.250980 0.000000 0.498039
0.000000 0.000000 0.498039
1.000000 1.000000 0.250980
0.749020 1.000000 0.250980
0.498039 1.000000 0.250980
0.250980 1.000000 0.250980
0.000000 1.000000 0.250980
1.000000 0.749020 0.250980
0.749020 0.749020 0.250980
0.498039 0.749020 0.250980
0.250980 0.749020 0.250980
0.000000 0.749020 0.250980
1.000000 0.498039 0.250980
0.749020 0.498039 0.250980
0.498039 0.498039 0.250980
0.250980 0.498039 0.250980
0.000000 0.498039 0.250980
1.000000 0.250980 0.250980
0.749020 0.250980 0.250980
0.498039 0.250980 0.250980
0.250980 0.250980 0.250980
0.000000 0.250980 0.250980
1.000000 0.000000 0.250980
0.749020 0.000000 0.250980
0.498039 0.000000 0.250980
0.250980 0.000000 0.250980
0.000000 0.000000 0.250980
1.000000 1.000000 0.000000
0.749020 1.000000 0.000000
0.498039 1.000000 0.000000
0.250980 1.000000 0.000000
0.000000 1.000000 0.000000
1.000000 0.749020 0.000000
0.749020 0.749020 0.000000
0.498039 0.749020 0.000000
0.250980 0.749020 0.000000
0.000000 0.749020 0.000000
1.000000 0.498039 0.000000
0.749020 0.498039 0.000000
0.498039 0.498039 0.000000
0.250980 0.498039 0.000000
0.000000 0.498039 0.000000
1.000000 0.250980 0.000000
0.749020 0.250980 0.000000
0.498039 0.250980 0.000000
0.250980 0.250980 0.000000
0.000000 0.250980 0.000000
1.000000 0.000000 0.000000
0.749020 0.000000 0.000000
0.498039 0.000000 0.000000
0.250980 0.000000 0.000000
0.000000 0.000000 0.000000
