LUTs/inverted/inverted_65.cube
TITLE "LUT"
LUT_3D_SIZE 65
1.000000 1.000000 1.000000
0.984314 1.000000 1.000000
0.968627 1.000000 1.000000
0.952941 1.000000 1.000000
0.937255 1.000000 1.000000
0.921569 1.000000 1.000000
0.905882 1.000000 1.000000
0.890196 1.000000 1.000000
0.874510 1.000000 1.000000
0.858824 1.000000 1.000000
0.843137 1.000000 1.000000
0.827451 1.000000 1.000000
0.811765 1.000000 1.000000
0.796078 1.000000 1.000000
0.780392 1.000000 1.000000
0.764706 1.000000 1.000000
0.749020 1.000000 1.000000
0.733333 1.000000 1.000000
0.717647 1.000000 1.000000
0.701961 1.000000 1.000000
0.686275 1.000000 1.000000
0.670588 1.000000 1.000000
0.654902 1.000000 1.000000
0.639216 1.000000 1.000000
0.623529 1.000000 1.000000
0.607843 1.000000 1.000000
0.592157 1.000000 1.000000
0.576471 1.000000 1.000000
0.560784 1.000000 1.000000
0.545098 1.000000 1.000000
0.529412 1.000000 1.000000
0.513725 1.000000 1.000000
0.498039 1.000000 1.000000
0.486275 1.000000 1.000000
0.470588 1.000000 1.000000
0.454902 1.000000 1.000000
0.439216 1.000000 1.000000
0.423529 1.000000 1.000000
0.407843 1.000000 1.000000
0.392157 1.000000 1.000000
0.376471 1.000000 1.000000
0.360784 1.000000 1.000000
0.345098 1.000000 1.000000
0.329412 1.000000 1.000000
0.313725 1.000000 1.000000
0.298039 1.000000 1.000000
0.282353 1.000000 1.000000
0.266667 1.000000 1.000000
0.250980 1.000000 1.000000
0.235294 1.000000 1.000000
0.219608 1.000000 1.000000
0.203922 1.000000 1.000000
0.188235 1.000000 1.000000
0.172549 1.000000 1.000000
0.156863 1.000000 1.000000
0.141176 1.000000 1.000000
0.125490 1.000000 1.000000
0.109804 1.000000 1.000000
0.094118 1.000000 1.000000
0.078431 1.000000 1.000000
0.062745 1.000000 1.000000
0.047059 1.000000 1.000000
0.031373 1.000000 1.000000
0.015686 1.000000 1.000000
0.000000 1.000000 1.000000
1.000000 0.984314 1.000000
0.984314 0.984314 1.000000
0.968627 0.984314 1.000000
0.952941 0.984314 1.000000
0.937255 0.984314 1.000000
0.921569 0.984314 1.000000
0.905882 0.984314 1.000000
0.890196 0.984314 1.000000
0.874510 0.984314 1.000000
0.858824 0.984314 1.000000
0.843137 0.984314 1.000000
0.827451 0.984314 1.000000
0.811765 0.984314 1.000000
0.796078 0.984314 1.000000
0.780392 0.984314 1.000000
0.764706 0.984314 1.000000
0.749020 0.984314 1.000000
0.733333 0.984314 1.000000
0.717647 0.984314 1.000000
0.701961 0.984314 1.000000
0.686275 0.984314 1.000000
0.670588 0.984314 1.000000
0.654902 0.984314 1.000000
0.639216 0.984314 1.000000
0.623529 0.984314 1.000000
0.607843 0.984314 1.000000
0.592157 0.984314 1.000000
0.576471 0.984314 1.000000
0.560784 0.984314 1.000000
0.545098 0.984314 1.000000
0.529412 0.984314 1.000000
0.513725 0.984314 1.000000
0.498039 0.984314 1.000000
0.486275 0.984314 1.000000
0.470588 0.984314 1.000000
0.454902 0.984314 1.000000
0.439216 0.984314 1.000000
0.423529 0.984314 1.000000
0.407843 0.984314 1.000000
0.392157 0.984314 1.000000
0.376471 0.984314 1.000000
0.360784 0.984314 1.000000
0.345098 0.984314 1.000000
0.329412 0.984314 1.000000
0.313725 0.984314 1.000000
0.298039 0.984314 1.000000
0.282353 0.984314 1.000000
0.266667 0.984314 1.000000
0.250980 0.984314 1.000000
0.235294 0.984314 1.000000
0.219608 0.984314 1.000000
0.203922 0.984314 1.000000
0.188235 0.984314 1.000000
0.172549 0.984314 1.000000
0.156863 0.984314 1.000000
0.141176 0.984314 1.000000
0.125490 0.984314 1.000000
0.109804 0.984314 1.000000
0.094118 0.984314 1.000000
0.078431 0.984314 1.000000
0.062745 0.984314 1.000000
0.047059 0.984314 1.000000
0.031373 0.984314 1.000000
0.015686 0.984314 1.000000
0.000000 0.984314 1.000000
1.000000 0.968627 1.000000
0.984314 0.968627 1.000000
0.968627 0.968627 1.000000
0.952941 0.968627 1.000000
0.937255 0.968627 1.000000
0.921569 0.968627 1.000000
0.905882 0.968627 1.000000
0.890196 0.968627 1.000000
0.874510 0.968627 1.000000
0.858824 0.968627 1.000000
0.843137 0.968627 1.000000
0.827451 0.968627 1.000000
0.811765 0.968627 1.000000
0.796078 0.968627 1.000000
0.780392 0.968627 1.000000
0.764706 0.968627 1.000000
0.749020 0.968627 1.000000
0.733333 0.968627 1.000000
0.717647 0.968627 1.000000
0.701961 0.968627 1.000000
0.686275 0.968627 1.000000
0.670588 0.968627 1.000000
0.654902 0.968627 1.000000
0.639216 0.968627 1.000000
0.623529 0.968627 1.000000
0.607843 0.968627 1.000000
0.592157 0.968627 1.000000
0.576471 0.968627 1.000000
0.560784 0.968627 1.000000
0.545098 0.968627 1.000000
0.529412 0.968627 1.000000
0.513725 0.968627 1.000000
0.498039 0.968627 1.000000
0.486275 0.968627 1.000000
0.470588 0.968627 1.000000
0.454902 0.968627 1.000000
0.439216 0.968627 1.000000
0.423529 0.968627 1.000000
0.407843 0.968627 1.000000
0.392157 0.968627 1.000000
0.376471 0.968627 1.000000
0.360784 0.968627 1.000000
0.345098 0.968627 1.000000
0.329412 0.968627 1.000000
0.313725 0.968627 1.000000
0.298039 0.968627 1.000000
0.282353 0.968627 1.000000
0.266667 0.968627 1.000000
0.250980 0.968627 1.000000
0.235294 0.968627 1.000000
0.219608 0.968627 1.000000
0.203922 0.968627 1.000000
0.188235 0.968627 1.000000
0.172549 0.968627 1.000000
0.156863 0.968627 1.000000
0.141176 0.968627 1.000000
0.125490 0.968627 1.000000
0.109804 0.968627 1.000000
0.094118 0.968627 1.000000
0.078431 0.968627 1.000000
0.062745 0.968627 1.000000
0.047059 0.968627 1.000000
0.031373 0.968627 1.000000
0.015686 0.968627 1.000000
0.000000 0.968627 1.000000
1.000000 0.952941 1.000000
0.984314 0.952941 1.000000
0.968627 0.952941 1.000000
0.952941 0.952941 1.000000
0.937255 0.952941 1.000000
0.921569 0.952941 1.000000
0.905882 0.952941 1.000000
0.890196 0.952941 1.000000
0.874510 0.952941 1.000000
0.858824 0.952941 1.000000
0.843137 0.952941 1.000000
0.827451 0.952941 1.000000
0.811765 0.952941 1.000000
0.796078 0.952941 1.000000
0.780392 0.952941 1.000000
0.764706 0.952941 1.000000
0.749020 0.952941 1.000000
0.733333 0.952941 1.000000
0.717647 0.952941 1.000000
0.701961 0.952941 1.000000
0.686275 0.952941 1.000000
0.670588 0.952941 1.000000
0.654902 0.952941 1.000000
0.639216 0.952941 1.000000
0.623529 0.952941 1.000000
0.607843 0.952941 1.000000
0.592157 0.952941 1.000000
0.576471 0.952941 1.000000
0.560784 0.952941 1.000000
0.545098 0.952941 1.000000
0.529412 0.952941 1.000000
0.513725 0.952941 1.000000
0.498039 0.952941 1.000000
0.486275 0.952941 1.000000
0.470588 0.952941 1.000000
0.454902 0.952941 1.000000
0.439216 0.952941 1.000000
0.423529 0.952941 1.000000
0.407843 0.952941 1.000000
0.392157 0.952941 1.000000
0.376471 0.952941 1.000000
0.360784 0.952941 1.000000
0.345098 0.952941 1.000000
0.329412 0.952941 1.000000
0.313725 0.952941 1.000000
0.298039 0.952941 1.000000
0.282353 0.952941 1.000000
0.266667 0.952941 1.000000
0.250980 0.952941 1.000000
0.235294 0.952941 1.000000
0.219608 0.952941 1.000000
0.203922 0.952941 1.000000
0.188235 0.952941 1.000000
0.172549 0.952941 1.000000
0.156863 0.952941 1.000000
0.141176 0.952941 1.000000
0.125490 0.952941 1.000000
0.109804 0.952941 1.000000
0.094118 0.952941 1.000000
0.078431 0.952941 1.000000
0.062745 0.952941 1.000000
0.047059 0.952941 1.000000
0.031373 0.952941 1.000000
0.015686 0.952941 1.000000
0.000000 0.952941 1.000000
1.000000 0.937255 1.000000
0.984314 0.937255 1.000000
0.968627 0.937255 1.000000
0.952941 0.937255 1.000000
0.937255 0.937255 1.000000
0.921569 0.937255 1.000000
0.905882 0.937255 1.000000
0.890196 0.937255 1.000000
0.874510 0.937255 1.000000
0.858824 0.937255 1.000000
0.843137 0.937255 1.000000
0.827451 0.937255 1.000000
0.811765 0.937255 1.000000
0.796078 0.937255 1.000000
0.780392 0.937255 1.000000
0.764706 0.937255 1.000000
0.749020 0.937255 1.000000
0.733333 0.937255 1.000000
0.717647 0.937255 1.000000
0.701961 0.937255 1.000000
0.686275 0.937255 1.000000
0.670588 0.937255 1.000000
0.654902 0.937255 1.000000
0.639216 0.937255 1.000000
0.623529 0.937255 1.000000
0.607843 0.937255 1.000000
0.592157 0.937255 1.000000
0.576471 0.937255 1.000000
0.560784 0.937255 1.000000
0.545098 0.937255 1.000000
0.529412 0.937255 1.000000
0.513725 0.937255 1.000000
0.498039 0.937255 1.000000
0.486275 0.937255 1.000000
0.470588 0.937255 1.000000
0.454902 0.937255 1.000000
0.439216 0.937255 1.000000
0.423529 0.937255 1.000000
0.407843 0.937255 1.000000
0.392157 0.937255 1.000000
0.376471 0.937255 1.000000
0.360784 0.937255 1.000000
0.345098 0.937255 1.000000
0.329412 0.937255 1.000000
0.313725 0.937255 1.000000
0.298039 0.937255 1.000000
0.282353 0.937255 1.000000
0.266667 0.937255 1.000000
0.250980 0.937255 1.000000
0.235294 0.937255 1.000000
0.219608 0.937255 1.000000
0.203922 0.937255 1.000000
0.188235 0.937255 1.000000
0.172549 0.937255 1.000000
0.156863 0.937255 1.000000
0.141176 0.937255 1.000000
0.125490 0.937255 1.000000
0.109804 0.937255 1.000000
0.094118 0.937255 1.000000
0.078431 0.937255 1.000000
0.062745 0.937255 1.000000
0.047059 0.937255 1.000000
0.031373 0.937255 1.000000
0.015686 0.937255 1.000000
0.000000 0.937255 1.000000
1.000000 0.921569 1.000000
0.984314 0.921569 1.000000
0.968627 0.921569 1.000000
0.952941 0.921569 1.000000
0.937255 0.921569 1.000000
0.921569 0.921569 1.000000
0.905882 0.921569 1.000000
0.890196 0.921569 1.000000
0.874510 0.921569 1.000000
0.858824 0.921569 1.000000
0.843137 0.921569 1.000000
0.827451 0.921569 1.000000
0.811765 0.921569 1.000000
0.796078 0.921569 1.000000
0.780392 0.921569 1.000000
0.764706 0.921569 1.000000
0.749020 0.921569 1.000000
0.733333 0.921569 1.000000
0.717647 0.921569 1.000000
0.701961 0.921569 1.000000
0.686275 0.921569 1.000000
0.670588 0.921569 1.000000
0.654902 0.921569 1.000000
0.639216 0.921569 1.000000
0.623529 0.921569 1.000000
0.607843 0.921569 1.000000
0.592157 0.921569 1.000000
0.576471 0.921569 1.000000
0.560784 0.921569 1.000000
0.545098 0.921569 1.000000
0.529412 0.921569 1.000000
0.513725 0.921569 1.000000
0.498039 0.921569 1.000000
0.486275 0.921569 1.000000
0.470588 0.921569 1.000000
0.454902 0.921569 1.000000
0.439216 0.921569 1.000000
0.423529 0.921569 1.000000
0.407843 0.921569 1.000000
0.392157 0.921569 1.000000
0.376471 0.921569 1.000000
0.360784 0.921569 1.000000
0.345098 0.921569 1.000000
0.329412 0.921569 1.000000
0.313725 0.921569 1.000000
0.298039 0.921569 1.000000
0.282353 0.921569 1.000000
0.266667 0.921569 1.000000
0.250980 0.921569 1.000000
0.235294 0.921569 1.000000
0.219608 0.921569 1.000000
0.203922 0.921569 1.000000
0.188235 0.921569 1.000000
0.172549 0.921569 1.000000
0.156863 0.921569 1.000000
0.141176 0.921569 1.000000
0.125490 0.921569 1.000000
0.109804 0.921569 1.000000
0.094118 0.921569 1.000000
0.078431 0.921569 1.000000
0.062745 0.921569 1.000000
0.047059 0.921569 1.000000
0.031373 0.921569 1.000000
0.015686 0.921569 1.000000
0.000000 0.921569 1.000000
1.000000 0.905882 1.000000
0.984314 0.905882 1.000000
0.968627 0.905882 1.000000
0.952941 0.905882 1.000000
0.937255 0.905882 1.000000
0.921569 0.905882 1.000000
0.905882 0.905882 1.000000
0.890196 0.905882 1.000000
0.874510 0.905882 1.000000
0.858824 0.905882 1.000000
0.843137 0.905882 1.000000
0.827451 0.905882 1.000000
0.811765 0.905882 1.000000
0.796078 0.905882 1.000000
0.780392 0.905882 1.000000
0.764706 0.905882 1.000000
0.749020 0.905882 1.000000
0.733333 0.905882 1.000000
0.717647 0.905882 1.000000
0.701961 0.905882 1.000000
0.686275 0.905882 1.000000
0.670588 0.905882 1.000000
0.654902 0.905882 1.000000
0.639216 0.905882 1.000000
0.623529 0.905882 1.000000
0.607843 0.905882 1.000000
0.592157 0.905882 1.000000
0.576471 0.905882 1.000000
0.560784 0.905882 1.000000
0.545098 0.905882 1.000000
0.529412 0.905882 1.000000
0.513725 0.905882 1.000000
0.498039 0.905882 1.000000
0.486275 0.905882 1.000000
0.470588 0.905882 1.000000
0.454902 0.905882 1.000000
0.439216 0.905882 1.000000
0.423529 0.905882 1.000000
0.407843 0.905882 1.000000
0.392157 0.905882 1.000000
0.376471 0.905882 1.000000
0.360784 0.905882 1.000000
0.345098 0.905882 1.000000
0.329412 0.905882 1.000000
0.313725 0.905882 1.000000
0.298039 0.905882 1.000000
0.282353 0.905882 1.000000
0.266667 0.905882 1.000000
0.250980 0.905882 1.000000
0.235294 0.905882 1.000000
0.219608 0.905882 1.000000
0.203922 0.905882 1.000000
0.188235 0.905882 1.000000
0.172549 0.905882 1.000000
0.156863 0.905882 1.000000
0.141176 0.905882 1.000000
0.125490 0.905882 1.000000
0.109804 0.905882 1.000000
0.094118 0.905882 1.000000
0.078431 0.905882 1.000000
0.062745 0.905882 1.000000
0.047059 0.905882 1.000000
0.031373 0.905882 1.000000
0.015686 0.905882 1.000000
0.000000 0.905882 1.000000
1.000000 0.890196 1.000000
0.984314 0.890196 1.000000
0.968627 0.890196 1.000000
0.952941 0.890196 1.000000
0.937255 0.890196 1.000000
0.921569 0.890196 1.000000
0.905882 0.890196 1.000000
0.890196 0.890196 1.000000
0.874510 0.890196 1.000000
0.858824 0.890196 1.000000
0.843137 0.890196 1.000000
0.827451 0.890196 1.000000
0.811765 0.890196 1.000000
0.796078 0.890196 1.000000
0.780392 0.890196 1.000000
0.764706 0.890196 1.000000
0.749020 0.890196 1.000000
0.733333 0.890196 1.000000
0.717647 0.890196 1.000000
0.701961 0.890196 1.000000
0.686275 0.890196 1.000000
0.670588 0.890196 1.000000
0.654902 0.890196 1.000000
0.639216 0.890196 1.000000
0.623529 0.890196 1.000000
0.607843 0.890196 1.000000
0.592157 0.890196 1.000000
0.576471 0.890196 1.000000
0.560784 0.890196 1.000000
0.545098 0.890196 1.000000
0.529412 0.890196 1.000000
0.513725 0.890196 1.000000
0.498039 0.890196 1.000000
0.486275 0.890196 1.000000
0.470588 0.890196 1.000000
0.454902 0.890196 1.000000
0.439216 0.890196 1.000000
0.423529 0.890196 1.000000
0.407843 0.890196 1.000000
0.392157 0.890196 1.000000
0.376471 0.890196 1.000000
0.360784 0.890196 1.000000
0.345098 0.890196 1.000000
0.329412 0.890196 1.000000
0.313725 0.890196 1.000000
0.298039 0.890196 1.000000
0.282353 0.890196 1.000000
0.266667 0.890196 1.000000
0.250980 0.890196 1.000000
0.235294 0.890196 1.000000
0.219608 0.890196 1.000000
0.203922 0.890196 1.000000
0.188235 0.890196 1.000000
0.172549 0.890196 1.000000
0.156863 0.890196 1.000000
0.141176 0.890196 1.000000
0.125490 0.890196 1.000000
0.109804 0.890196 1.000000
0.094118 0.890196 1.000000
0.078431 0.890196 1.000000
0.062745 0.890196 1.000000
0.047059 0.890196 1.000000
0.031373 0.890196 1.000000
0.015686 0.890196 1.000000
0.000000 0.890196 1.000000
1.000000 0.874510 1.000000
0.984314 0.874510 1.000000
0.968627 0.874510 1.000000
0.952941 0.874510 1.000000
0.937255 0.874510 1.000000
0.921569 0.874510 1.000000
0.905882 0.874510 1.000000
0.890196 0.874510 1.000000
0.874510 0.874510 1.000000
0.858824 0.874510 1.000000
0.843137 0.874510 1.000000
0.827451 0.874510 1.000000
0.811765 0.874510 1.000000
0.796078 0.874510 1.000000
0.780392 0.874510 1.000000
0.764706 0.874510 1.000000
0.749020 0.874510 1.000000
0.733333 0.874510 1.000000
0.717647 0.874510 1.000000
0.701961 0.874510 1.000000
0.686275 0.874510 1.000000
0.670588 0.874510 1.000000
0.654902 0.874510 1.000000
0.639216 0.874510 1.000000
0.623529 0.874510 1.000000
0.607843 0.874510 1.000000
0.592157 0.874510 1.000000
0.576471 0.874510 1.000000
0.560784 0.874510 1.000000
0.545098 0.874510 1.000000
0.529412 0.874510 1.000000
0.513725 0.874510 1.000000
0.498039 0.874510 1.000000
0.486275 0.874510 1.000000
0.470588 0.874510 1.000000
0.454902 0.874510 1.000000
0.439216 0.874510 1.000000
0.423529 0.874510 1.000000
0.407843 0.874510 1.000000
0.392157 0.874510 1.000000
0.376471 0.874510 1.000000
0.360784 0.874510 1.000000
0.345098 0.874510 1.000000
0.329412 0.874510 1.000000
0.313725 0.874510 1.000000
0.298039 0.874510 1.000000
0.282353 0.874510 1.000000
0.266667 0.874510 1.000000
0.250980 0.874510 1.000000
0.235294 0.874510 1.000000
0.219608 0.874510 1.000000
0.203922 0.874510 1.000000
0.188235 0.874510 1.000000
0.172549 0.874510 1.000000
0.156863 0.874510 1.000000
0.141176 0.874510 1.000000
0.125490 0.874510 1.000000
0.109804 0.874510 1.000000
0.094118 0.874510 1.000000
0.078431 0.874510 1.000000
0.062745 0.874510 1.000000
0.047059 0.874510 1.000000
0.031373 0.874510 1.000000
0.015686 0.874510 1.000000
0.000000 0.874510 1.000000
1.000000 0.858824 1.000000
0.984314 0.858824 1.000000
0.968627 0.858824 1.000000
0.952941 0.858824 1.000000
0.937255 0.858824 1.000000
0.921569 0.858824 1.000000
0.905882 0.858824 1.000000
0.890196 0.858824 1.000000
0.874510 0.858824 1.000000
0.858824 0.858824 1.000000
0.843137 0.858824 1.000000
0.827451 0.858824 1.000000
0.811765 0.858824 1.000000
0.796078 0.858824 1.000000
0.780392 0.858824 1.000000
0.764706 0.858824 1.000000
0.749020 0.858824 1.000000
0.733333 0.858824 1.000000
0.717647 0.858824 1.000000
0.701961 0.858824 1.000000
0.686275 0.858824 1.000000
0.670588 0.858824 1.000000
0.654902 0.858824 1.000000
0.639216 0.858824 1.000000
0.623529 0.858824 1.000000
0.607843 0.858824 1.000000
0.592157 0.858824 1.000000
0.576471 0.858824 1.000000
0.560784 0.858824 1.000000
0.545098 0.858824 1.000000
0.529412 0.858824 1.000000
0.513725 0.858824 1.000000
0.498039 0.858824 1.000000
0.486275 0.858824 1.000000
0.470588 0.858824 1.000000
0.454902 0.858824 1.000000
0.439216 0.858824 1.000000
0.423529 0.858824 1.000000
0.407843 0.858824 1.000000
0.392157 0.858824 1.000000
0.376471 0.858824 1.000000
0.360784 0.858824 1.000000
0.345098 0.858824 1.000000
0.329412 0.858824 1.000000
0.313725 0.858824 1.000000
0.298039 0.858824 1.000000
0.282353 0.858824 1.000000
0.266667 0.858824 1.000000
0.250980 0.858824 1.000000
0.235294 0.858824 1.000000
0.219608 0.858824 1.000000
0.203922 0.858824 1.000000
0.188235 0.858824 1.000000
0.172549 0.858824 1.000000
0.156863 0.858824 1.000000
0.141176 0.858824 1.000000
0.125490 0.858824 1.000000
0.109804 0.858824 1.000000
0.094118 0.858824 1.000000
0.078431 0.858824 1.000000
0.062745 0.858824 1.000000
0.047059 0.858824 1.000000
0.031373 0.858824 1.000000
0.015686 0.858824 1.000000
0.000000 0.858824 1.000000
1.000000 0.843137 1.000000
0.984314 0.843137 1.000000
0.968627 0.843137 1.000000
0.952941 0.843137 1.000000
0.937255 0.843137 1.000000
0.921569 0.843137 1.000000
0.905882 0.843137 1.000000
0.890196 0.843137 1.000000
0.874510 0.843137 1.000000
0.858824 0.843137 1.000000
0.843137 0.843137 1.000000
0.827451 0.843137 1.000000
0.811765 0.843137 1.000000
0.796078 0.843137 1.000000
0.780392 0.843137 1.000000
0.764706 0.843137 1.000000
0.749020 0.843137 1.000000
0.733333 0.843137 1.000000
0.717647 0.843137 1.000000
0.701961 0.843137 1.000000
0.686275 0.843137 1.000000
0.670588 0.843137 1.000000
0.654902 0.843137 1.000000
0.639216 0.843137 1.000000
0.623529 0.843137 1.000000
0.607843 0.843137 1.000000
0.592157 0.843137 1.000000
0.576471 0.843137 1.000000
0.560784 0.843137 1.000000
0.545098 0.843137 1.000000
0.529412 0.843137 1.000000
0.513725 0.843137 1.000000
0.498039 0.843137 1.000000
0.486275 0.843137 1.000000
0.470588 0.843137 1.000000
0.454902 0.843137 1.000000
0.439216 0.843137 1.000000
0.423529 0.843137 1.000000
0.407843 0.843137 1.000000
0.392157 0.843137 1.000000
0.376471 0.843137 1.000000
0.360784 0.843137 1.000000
0.345098 0.843137 1.000000
0.329412 0.843137 1.000000
0.313725 0.843137 1.000000
0.298039 0.843137 1.000000
0.282353 0.843137 1.000000
0.266667 0.843137 1.000000
0.250980 0.843137 1.000000
0.235294 0.843137 1.000000
0.219608 0.843137 1.000000
0.203922 0.843137 1.000000
0.188235 0.843137 1.000000
0.172549 0.843137 1.000000
0.156863 0.843137 1.000000
0.141176 0.843137 1.000000
0.125490 0.843137 1.000000
0.109804 0.843137 1.000000
0.094118 0.843137 1.000000
0.078431 0.843137 1.000000
0.062745 0.843137 1.000000
0.047059 0.843137 1.000000
0.031373 0.843137 1.000000
0.015686 0.843137 1.000000
0.000000 0.843137 1.000000
1.000000 0.827451 1.000000
0.984314 0.827451 1.000000
0.968627 0.827451 1.000000
0.952941 0.827451 1.000000
0.937255 0.827451 1.000000
0.921569 0.827451 1.000000
0.905882 0.827451 1.000000
0.890196 0.827451 1.000000
0.874510 0.827451 1.000000
0.858824 0.827451 1.000000
0.843137 0.827451 1.000000
0.827451 0.827451 1.000000
0.811765 0.827451 1.000000
0.796078 0.827451 1.000000
0.780392 0.827451 1.000000
0.764706 0.827451 1.000000
0.749020 0.827451 1.000000
0.733333 0.827451 1.000000
0.717647 0.827451 1.000000
0.701961 0.827451 1.000000
0.686275 0.827451 1.000000
0.670588 0.827451 1.000000
0.654902 0.827451 1.000000
0.639216 0.827451 1.000000
0.623529 0.827451 1.000000
0.607843 0.827451 1.000000
0.592157 0.827451 1.000000
0.576471 0.827451 1.000000
0.560784 0.827451 1.000000
0.545098 0.827451 1.000000
0.529412 0.827451 1.000000
0.513725 0.827451 1.000000
0.498039 0.827451 1.000000
0.486275 0.827451 1.000000
0.470588 0.827451 1.000000
0.454902 0.827451 1.000000
0.439216 0.827451 1.000000
0.423529 0.827451 1.000000
0.407843 0.827451 1.000000
0.392157 0.827451 1.000000
0.376471 0.827451 1.000000
0.360784 0.827451 1.000000
0.345098 0.827451 1.000000
0.329412 0.827451 1.000000
0.313725 0.827451 1.000000
0.298039 0.827451 1.000000
0.282353 0.827451 1.000000
0.266667 0.827451 1.000000
0.250980 0.827451 1.000000
0.235294 0.827451 1.000000
0.219608 0.827451 1.000000
0.203922 0.827451 1.000000
0.188235 0.827451 1.000000
0.172549 0.827451 1.000000
0.156863 0.827451 1.000000
0.141176 0.827451 1.000000
0.125490 0.827451 1.000000
0.109804 0.827451 1.000000
0.094118 0.827451 1.000000
0.078431 0.827451 1.000000
0.062745 0.827451 1.000000
0.047059 0.827451 1.000000
0.031373 0.827451 1.000000
0.015686 0.827451 1.000000
0.000000 0.827451 1.000000
1.000000 0.811765 1.000000
0.984314 0.811765 1.000000
0.968627 0.811765 1.000000
0.952941 0.811765 1.000000
0.937255 0.811765 1.000000
0.921569 0.811765 1.000000
0.905882 0.811765 1.000000
0.890196 0.811765 1.000000
0.874510 0.811765 1.000000
0.858824 0.811765 1.000000
0.843137 0.811765 1.000000
0.827451 0.811765 1.000000
0.811765 0.811765 1.000000
0.796078 0.811765 1.000000
0.780392 0.811765 1.000000
0.764706 0.811765 1.000000
0.749020 0.811765 1.000000
0.733333 0.811765 1.000000
0.717647 0.811765 1.000000
0.701961 0.811765 1.000000
0.686275 0.811765 1.000000
0.670588 0.811765 1.000000
0.654902 0.811765 1.000000
0.639216 0.811765 1.000000
0.623529 0.811765 1.000000
0.607843 0.811765 1.000000
0.592157 0.811765 1.000000
0.576471 0.811765 1.000000
0.560784 0.811765 1.000000
0.545098 0.811765 1.000000
0.529412 0.811765 1.000000
0.513725 0.811765 1.000000
0.498039 0.811765 1.000000
0.486275 0.811765 1.000000
0.470588 0.811765 1.000000
0.454902 0.811765 1.000000
0.439216 0.811765 1.000000
0.423529 0.811765 1.000000
0.407843 0.811765 1.000000
0.392157 0.811765 1.000000
0.376471 0.811765 1.000000
0.360784 0.811765 1.000000
0.345098 0.811765 1.000000
0.329412 0.811765 1.000000
0.313725 0.811765 1.000000
0.298039 0.811765 1.000000
0.282353 0.811765 1.000000
0.266667 0.811765 1.000000
0.250980 0.811765 1.000000
0.235294 0.811765 1.000000
0.219608 0.811765 1.000000
0.203922 0.811765 1.000000
0.188235 0.811765 1.000000
0.172549 0.811765 1.000000
0.156863 0.811765 1.000000
0.141176 0.811765 1.000000
0.125490 0.811765 1.000000
0.109804 0.811765 1.000000
0.094118 0.811765 1.000000
0.078431 0.811765 1.000000
0.062745 0.811765 1.000000
0.047059 0.811765 1.000000
0.031373 0.811765 1.000000
0.015686 0.811765 1.000000
0.000000 0.811765 1.000000
1.000000 0.796078 1.000000
0.984314 0.796078 1.000000
0.968627 0.796078 1.000000
0.952941 0.796078 1.000000
0.937255 0.796078 1.000000
0.921569 0.796078 1.000000
0.905882 0.796078 1.000000
0.890196 0.796078 1.000000
0.874510 0.796078 1.000000
0.858824 0.796078 1.000000
0.843137 0.796078 1.000000
0.827451 0.796078 1.000000
0.811765 0.796078 1.000000
0.796078 0.796078 1.000000
0.780392 0.796078 1.000000
0.764706 0.796078 1.000000
0.749020 0.796078 1.000000
0.733333 0.796078 1.000000
0.717647 0.796078 1.000000
0.701961 0.796078 1.000000
0.686275 0.796078 1.000000
0.670588 0.796078 1.000000
0.654902 0.796078 1.000000
0.639216 0.796078 1.000000
0.623529 0.796078 1.000000
0.607843 0.796078 1.000000
0.592157 0.796078 1.000000
0.576471 0.796078 1.000000
0.560784 0.796078 1.000000
0.545098 0.796078 1.000000
0.529412 0.796078 1.000000
0.513725 0.796078 1.000000
0.498039 0.796078 1.000000
0.486275 0.796078 1.000000
0.470588 0.796078 1.000000
0.454902 0.796078 1.000000
0.439216 0.796078 1.000000
0.423529 0.796078 1.000000
0.407843 0.796078 1.000000
0.392157 0.796078 1.000000
0.376471 0.796078 1.000000
0.360784 0.796078 1.000000
