LUTs/inverted/inverted_33.cube
TITLE "LUT"
LUT_3D_SIZE 33
1.000000 1.000000 1.000000
0.968627 1.000000 1.000000
0.937255 1.000000 1.000000
0.905882 1.000000 1.000000
0.874510 1.000000 1.000000
0.843137 1.000000 1.000000
0.811765 1.000000 1.000000
0.780392 1.000000 1.000000
0.749020 1.000000 1.000000
0.717647 1.000000 1.000000
0.686275 1.000000 1.000000
0.654902 1.000000 1.000000
0.623529 1.000000 1.000000
0.592157 1.000000 1.000000
0.560784 1.000000 1.000000
0.529412 1.000000 1.000000
0.498039 1.000000 1.000000
0.470588 1.000000 1.000000
0.439216 1.000000 1.000000
0.407843 1.000000 1.000000
0.376471 1.000000 1.000000
0.345098 1.000000 1.000000
0.313725 1.000000 1.000000
0.282353 1.000000 1.000000
0.250980 1.000000 1.000000
0.219608 1.000000 1.000000
0.188235 1.000000 1.000000
0.156863 1.000000 1.000000
0.125490 1.000000 1.000000
0.094118 1.000000 1.000000
0.062745 1.000000 1.000000
0.031373 1.000000 1.000000
0.000000 1.000000 1.000000
1.000000 0.968627 1.000000
0.968627 0.968627 1.000000
0.937255 0.968627 1.000000
0.905882 0.968627 1.000000
0.874510 0.968627 1.000000
0.843137 0.968627 1.000000
0.811765 0.968627 1.000000
0.780392 0.968627 1.000000
0.749020 0.968627 1.000000
0.717647 0.968627 1.000000
0.686275 0.968627 1.000000
0.654902 0.968627 1.000000
0.623529 0.968627 1.000000
0.592157 0.968627 1.000000
0.560784 0.968627 1.000000
0.529412 0.968627 1.000000
0.498039 0.968627 1.000000
0.470588 0.968627 1.000000
0.439216 0.968627 1.000000
0.407843 0.968627 1.000000
0.376471 0.968627 1.000000
0.345098 0.968627 1.000000
0.313725 0.968627 1.000000
0.282353 0.968627 1.000000
0.250980 0.968627 1.000000
0.219608 0.968627 1.000000
0.188235 0.968627 1.000000
0.156863 0.968627 1.000000
0.125490 0.968627 1.000000
0.094118 0.968627 1.000000
0.062745 0.968627 1.000000
0.031373 0.968627 1.000000
0.000000 0.968627 1.000000
1.000000 0.937255 1.000000
0.968627 0.937255 1.000000
0.937255 0.937255 1.000000
0.905882 0.937255 1.000000
0.874510 0.937255 1.000000
0.843137 0.937255 1.000000
0.811765 0.937255 1.000000
0.780392 0.937255 1.000000
0.749020 0.937255 1.000000
0.717647 0.937255 1.000000
0.686275 0.937255 1.000000
0.654902 0.937255 1.000000
0.623529 0.937255 1.000000
0.592157 0.937255 1.000000
0.560784 0.937255 1.000000
0.529412 0.937255 1.000000
0.498039 0.937255 1.000000
0.470588 0.937255 1.000000
0.439216 0.937255 1.000000
0.407843 0.937255 1.000000
0.376471 0.937255 1.000000
0.345098 0.937255 1.000000
0.313725 0.937255 1.000000
0.282353 0.937255 1.000000
0.250980 0.937255 1.000000
0.219608 0.937255 1.000000
0.188235 0.937255 1.000000
0.156863 0.937255 1.000000
0.125490 0.937255 1.000000
0.094118 0.937255 1.000000
0.062745 0.937255 1.000000
0.031373 0.937255 1.000000
0.000000 0.937255 1.000000
1.000000 0.905882 1.000000
0.968627 0.905882 1.000000
0.937255 0.905882 1.000000
0.905882 0.905882 1.000000
0.874510 0.905882 1.000000
0.843137 0.905882 1.000000
0.811765 0.905882 1.000000
0.780392 0.905882 1.000000
0.749020 0.905882 1.000000
0.717647 0.905882 1.000000
0.686275 0.905882 1.000000
0.654902 0.905882 1.000000
0.623529 0.905882 1.000000
0.592157 0.905882 1.000000
0.560784 0.905882 1.000000
0.529412 0.905882 1.000000
0.498039 0.905882 1.000000
0.470588 0.905882 1.000000
0.439216 0.905882 1.000000
0.407843 0.905882 1.000000
0.376471 0.905882 1.000000
0.345098 0.905882 1.000000
0.313725 0.905882 1.000000
0.282353 0.905882 1.000000
0.250980 0.905882 1.000000
0.219608 0.905882 1.000000
0.188235 0.905882 1.000000
0.156863 0.905882 1.000000
0.125490 0.905882 1.000000
0.094118 0.905882 1.000000
0.062745 0.905882 1.000000
0.031373 0.905882 1.000000
0.000000 0.905882 1.000000
1.000000 0.874510 1.000000
0.968627 0.874510 1.000000
0.937255 0.874510 1.000000
0.905882 0.874510 1.000000
0.874510 0.874510 1.000000
0.843137 0.874510 1.000000
0.811765 0.874510 1.000000
0.780392 0.874510 1.000000
0.749020 0.874510 1.000000
0.717647 0.874510 1.000000
0.686275 0.874510 1.000000
0.654902 0.874510 1.000000
0.623529 0.874510 1.000000
0.592157 0.874510 1.000000
0.560784 0.874510 1.000000
0.529412 0.874510 1.000000
0.498039 0.874510 1.000000
0.470588 0.874510 1.000000
0.439216 0.874510 1.000000
0.407843 0.874510 1.000000
0.376471 0.874510 1.000000
0.345098 0.874510 1.000000
0.313725 0.874510 1.000000
0.282353 0.874510 1.000000
0.250980 0.874510 1.000000
0.219608 0.874510 1.000000
0.188235 0.874510 1.000000
0.156863 0.874510 1.000000
0.125490 0.874510 1.000000
0.094118 0.874510 1.000000
0.062745 0.874510 1.000000
0.031373 0.874510 1.000000
0.000000 0.874510 1.000000
1.000000 0.843137 1.000000
0.968627 0.843137 1.000000
0.937255 0.843137 1.000000
0.905882 0.843137 1.000000
0.874510 0.843137 1.000000
0.843137 0.843137 1.000000
0.811765 0.843137 1.000000
0.780392 0.843137 1.000000
0.749020 0.843137 1.000000
0.717647 0.843137 1.000000
0.686275 0.843137 1.000000
0.654902 0.843137 1.000000
0.623529 0.843137 1.000000
0.592157 0.843137 1.000000
0.560784 0.843137 1.000000
0.529412 0.843137 1.000000
0.498039 0.843137 1.000000
0.470588 0.843137 1.000000
0.439216 0.843137 1.000000
0.407843 0.843137 1.000000
0.376471 0.843137 1.000000
0.345098 0.843137 1.000000
0.313725 0.843137 1.000000
0.282353 0.843137 1.000000
0.250980 0.843137 1.000000
0.219608 0.843137 1.000000
0.188235 0.843137 1.000000
0.156863 0.843137 1.000000
0.125490 0.843137 1.000000
0.094118 0.843137 1.000000
0.062745 0.843137 1.000000
0.031373 0.843137 1.000000
0.000000 0.843137 1.000000
1.000000 0.811765 1.000000
0.968627 0.811765 1.000000
0.937255 0.811765 1.000000
0.905882 0.811765 1.000000
0.874510 0.811765 1.000000
0.843137 0.811765 1.000000
0.811765 0.811765 1.000000
0.780392 0.811765 1.000000
0.749020 0.811765 1.000000
0.717647 0.811765 1.000000
0.686275 0.811765 1.000000
0.654902 0.811765 1.000000
0.623529 0.811765 1.000000
0.592157 0.811765 1.000000
0.560784 0.811765 1.000000
0.529412 0.811765 1.000000
0.498039 0.811765 1.000000
0.470588 0.811765 1.000000
0.439216 0.811765 1.000000
0.407843 0.811765 1.000000
0.376471 0.811765 1.000000
0.345098 0.811765 1.000000
0.313725 0.811765 1.000000
0.282353 0.811765 1.000000
0.250980 0.811765 1.000000
0.219608 0.811765 1.000000
0.188235 0.811765 1.000000
0.156863 0.811765 1.000000
0.125490 0.811765 1.000000
0.094118 0.811765 1.000000
0.062745 0.811765 1.000000
0.031373 0.811765 1.000000
0.000000 0.811765 1.000000
1.000000 0.780392 1.000000
0.968627 0.780392 1.000000
0.937255 0.780392 1.000000
0.905882 0.780392 1.000000
0.874510 0.780392 1.000000
0.843137 0.780392 1.000000
0.811765 0.780392 1.000000
0.780392 0.780392 1.000000
0.749020 0.780392 1.000000
0.717647 0.780392 1.000000
0.686275 0.780392 1.000000
0.654902 0.780392 1.000000
0.623529 0.780392 1.000000
0.592157 0.780392 1.000000
0.560784 0.780392 1.000000
0.529412 0.780392 1.000000
0.498039 0.780392 1.000000
0.470588 0.780392 1.000000
0.439216 0.780392 1.000000
0.407843 0.780392 1.000000
0.376471 0.780392 1.000000
0.345098 0.780392 1.000000
0.313725 0.780392 1.000000
0.282353 0.780392 1.000000
0.250980 0.780392 1.000000
0.219608 0.780392 1.000000
0.188235 0.780392 1.000000
0.156863 0.780392 1.000000
0.125490 0.780392 1.000000
0.094118 0.780392 1.000000
0.062745 0.780392 1.000000
0.031373 0.780392 1.000000
0.000000 0.780392 1.000000
1.000000 0.749020 1.000000
0.968627 0.749020 1.000000
0.937255 0.749020 1.000000
0.905882 0.749020 1.000000
0.874510 0.749020 1.000000
0.843137 0.749020 1.000000
0.811765 0.749020 1.000000
0.780392 0.749020 1.000000
0.749020 0.749020 1.000000
0.717647 0.749020 1.000000
0.686275 0.749020 1.000000
0.654902 0.749020 1.000000
0.623529 0.749020 1.000000
0.592157 0.749020 1.000000
0.560784 0.749020 1.000000
0.529412 0.749020 1.000000
0.498039 0.749020 1.000000
0.470588 0.749020 1.000000
0.439216 0.749020 1.000000
0.407843 0.749020 1.000000
0.376471 0.749020 1.000000
0.345098 0.749020 1.000000
0.313725 0.749020 1.000000
0.282353 0.749020 1.000000
0.250980 0.749020 1.000000
0.219608 0.749020 1.000000
0.188235 0.749020 1.000000
0.156863 0.749020 1.000000
0.125490 0.749020 1.000000
0.094118 0.749020 1.000000
0.062745 0.749020 1.000000
0.031373 0.749020 1.000000
0.000000 0.749020 1.000000
1.000000 0.717647 1.000000
0.968627 0.717647 1.000000
0.937255 0.717647 1.000000
0.905882 0.717647 1.000000
0.874510 0.717647 1.000000
0.843137 0.717647 1.000000
0.811765 0.717647 1.000000
0.780392 0.717647 1.000000
0.749020 0.717647 1.000000
0.717647 0.717647 1.000000
0.686275 0.717647 1.000000
0.654902 0.717647 1.000000
0.623529 0.717647 1.000000
0.592157 0.717647 1.000000
0.560784 0.717647 1.000000
0.529412 0.717647 1.000000
0.498039 0.717647 1.000000
0.470588 0.717647 1.000000
0.439216 0.717647 1.000000
0.407843 0.717647 1.000000
0.376471 0.717647 1.000000
0.345098 0.717647 1.000000
0.313725 0.717647 1.000000
0.282353 0.717647 1.000000
0.250980 0.717647 1.000000
0.219608 0.717647 1.000000
0.188235 0.717647 1.000000
0.156863 0.717647 1.000000
0.125490 0.717647 1.000000
0.094118 0.717647 1.000000
0.062745 0.717647 1.000000
0.031373 0.717647 1.000000
0.000000 0.717647 1.000000
1.000000 0.686275 1.000000
0.968627 0.686275 1.000000
0.937255 0.686275 1.000000
0.905882 0.686275 1.000000
0.874510 0.686275 1.000000
0.843137 0.686275 1.000000
0.811765 0.686275 1.000000
0.780392 0.686275 1.000000
0.749020 0.686275 1.000000
0.717647 0.686275 1.000000
0.686275 0.686275 1.000000
0.654902 0.686275 1.000000
0.623529 0.686275 1.000000
0.592157 0.686275 1.000000
0.560784 0.686275 1.000000
0.529412 0.686275 1.000000
0.498039 0.686275 1.000000
0.470588 0.686275 1.000000
0.439216 0.686275 1.000000
0.407843 0.686275 1.000000
0.376471 0.686275 1.000000
0.345098 0.686275 1.000000
0.313725 0.686275 1.000000
0.282353 0.686275 1.000000
0.250980 0.686275 1.000000
0.219608 0.686275 1.000000
0.188235 0.686275 1.000000
0.156863 0.686275 1.000000
0.125490 0.686275 1.000000
0.094118 0.686275 1.000000
0.062745 0.686275 1.000000
0.031373 0.686275 1.000000
0.000000 0.686275 1.000000
1.000000 0.654902 1.000000
0.968627 0.654902 1.000000
0.937255 0.654902 1.000000
0.905882 0.654902 1.000000
0.874510 0.654902 1.000000
0.843137 0.654902 1.000000
0.811765 0.654902 1.000000
0.780392 0.654902 1.000000
0.749020 0.654902 1.000000
0.717647 0.654902 1.000000
0.686275 0.654902 1.000000
0.654902 0.654902 1.000000
0.623529 0.654902 1.000000
0.592157 0.654902 1.000000
0.560784 0.654902 1.000000
0.529412 0.654902 1.000000
0.498039 0.654902 1.000000
0.470588 0.654902 1.000000
0.439216 0.654902 1.000000
0.407843 0.654902 1.000000
0.376471 0.654902 1.000000
0.345098 0.654902 1.000000
0.313725 0.654902 1.000000
0.282353 0.654902 1.000000
0.250980 0.654902 1.000000
0.219608 0.654902 1.000000
0.188235 0.654902 1.000000
0.156863 0.654902 1.000000
0.125490 0.654902 1.000000
0.094118 0.654902 1.000000
0.062745 0.654902 1.000000
0.031373 0.654902 1.000000
0.000000 0.654902 1.000000
1.000000 0.623529 1.000000
0.968627 0.623529 1.000000
0.937255 0.623529 1.000000
0.905882 0.623529 1.000000
0.874510 0.623529 1.000000
0.843137 0.623529 1.000000
0.811765 0.623529 1.000000
0.780392 0.623529 1.000000
0.749020 0.623529 1.000000
0.717647 0.623529 1.000000
0.686275 0.623529 1.000000
0.654902 0.623529 1.000000
0.623529 0.623529 1.000000
0.592157 0.623529 1.000000
0.560784 0.623529 1.000000
0.529412 0.623529 1.000000
0.498039 0.623529 1.000000
0.470588 0.623529 1.000000
0.439216 0.623529 1.000000
0.407843 0.623529 1.000000
0.376471 0.623529 1.000000
0.345098 0.623529 1.000000
0.313725 0.623529 1.000000
0.282353 0.623529 1.000000
0.250980 0.623529 1.000000
0.219608 0.623529 1.000000
0.188235 0.623529 1.000000
0.156863 0.623529 1.000000
0.125490 0.623529 1.000000
0.094118 0.623529 1.000000
0.062745 0.623529 1.000000
0.031373 0.623529 1.000000
0.000000 0.623529 1.000000
1.000000 0.592157 1.000000
0.968627 0.592157 1.000000
0.937255 0.592157 1.000000
0.905882 0.592157 1.000000
0.874510 0.592157 1.000000
0.843137 0.592157 1.000000
0.811765 0.592157 1.000000
0.780392 0.592157 1.000000
0.749020 0.592157 1.000000
0.717647 0.592157 1.000000
0.686275 0.592157 1.000000
0.654902 0.592157 1.000000
0.623529 0.592157 1.000000
0.592157 0.592157 1.000000
0.560784 0.592157 1.000000
0.529412 0.592157 1.000000
0.498039 0.592157 1.000000
0.470588 0.592157 1.000000
0.439216 0.592157 1.000000
0.407843 0.592157 1.000000
0.376471 0.592157 1.000000
0.345098 0.592157 1.000000
0.313725 0.592157 1.000000
0.282353 0.592157 1.000000
0.250980 0.592157 1.000000
0.219608 0.592157 1.000000
0.188235 0.592157 1.000000
0.156863 0.592157 1.000000
0.125490 0.592157 1.000000
0.094118 0.592157 1.000000
0.062745 0.592157 1.000000
0.031373 0.592157 1.000000
0.000000 0.592157 1.000000
1.000000 0.560784 1.000000
0.968627 0.560784 1.000000
0.937255 0.560784 1.000000
0.905882 0.560784 1.000000
0.874510 0.560784 1.000000
0.843137 0.560784 1.000000
0.811765 0.560784 1.000000
0.780392 0.560784 1.000000
0.749020 0.560784 1.000000
0.717647 0.560784 1.000000
0.686275 0.560784 1.000000
0.654902 0.560784 1.000000
0.623529 0.560784 1.000000
0.592157 0.560784 1.000000
0.560784 0.560784 1.000000
0.529412 0.560784 1.000000
0.498039 0.560784 1.000000
0.470588 0.560784 1.000000
0.439216 0.560784 1.000000
0.407843 0.560784 1.000000
0.376471 0.560784 1.000000
0.345098 0.560784 1.000000
0.313725 0.560784 1.000000
0.282353 0.560784 1.000000
0.250980 0.560784 1.000000
0.219608 0.560784 1.000000
0.188235 0.560784 1.000000
0.156863 0.560784 1.000000
0.125490 0.560784 1.000000
0.094118 0.560784 1.000000
0.062745 0.560784 1.000000
0.031373 0.560784 1.000000
0.000000 0.560784 1.000000
1.000000 0.529412 1.000000
0.968627 0.529412 1.000000
0.937255 0.529412 1.000000
0.905882 0.529412 1.000000
0.874510 0.529412 1.000000
0.843137 0.529412 1.000000
0.811765 0.529412 1.000000
0.780392 0.529412 1.000000
0.749020 0.529412 1.000000
0.717647 0.529412 1.000000
0.686275 0.529412 1.000000
0.654902 0.529412 1.000000
0.623529 0.529412 1.000000
0.592157 0.529412 1.000000
0.560784 0.529412 1.000000
0.529412 0.529412 1.000000
0.498039 0.529412 1.000000
0.470588 0.529412 1.000000
0.439216 0.529412 1.000000
0.407843 0.529412 1.000000
0.376471 0.529412 1.000000
0.345098 0.529412 1.000000
0.313725 0.529412 1.000000
0.282353 0.529412 1.000000
0.250980 0.529412 1.000000
0.219608 0.529412 1.000000
0.188235 0.529412 1.000000
0.156863 0.529412 1.000000
0.125490 0.529412 1.000000
0.094118 0.529412 1.000000
0.062745 0.529412 1.000000
0.031373 0.529412 1.000000
0.000000 0.529412 1.000000
1.000000 0.498039 1.000000
0.968627 0.498039 1.000000
0.937255 0.498039 1.000000
0.905882 0.498039 1.000000
0.874510 0.498039 1.000000
0.843137 0.498039 1.000000
0.811765 0.498039 1.000000
0.780392 0.498039 1.000000
0.749020 0.498039 1.000000
0.717647 0.498039 1.000000
0.686275 0.498039 1.000000
0.654902 0.498039 1.000000
0.623529 0.498039 1.000000
0.592157 0.498039 1.000000
0.560784 0.498039 1.000000
0.529412 0.498039 1.000000
0.498039 0.498039 1.000000
0.470588 0.498039 1.000000
0.439216 0.498039 1.000000
0.407843 0.498039 1.000000
0.376471 0.498039 1.000000
0.345098 0.498039 1.000000
0.313725 0.498039 1.000000
0.282353 0.498039 1.000000
0.250980 0.498039 1.000000
0.219608 0.498039 1.000000
0.188235 0.498039 1.000000
0.156863 0.498039 1.000000
0.125490 0.498039 1.000000
0.094118 0.498039 1.000000
0.062745 0.498039 1.000000
0.031373 0.498039 1.000000
0.000000 0.498039 1.000000
1.000000 0.470588 1.000000
0.968627 0.470588 1.000000
0.937255 0.470588 1.000000
0.905882 0.470588 1.000000
0.874510 0.470588 1.000000
0.843137 0.470588 1.000000
0.811765 0.470588 1.000000
0.780392 0.470588 1.000000
0.749020 0.470588 1.000000
0.717647 0.470588 1.000000
0.686275 0.470588 1.000000
0.654902 0.470588 1.000000
0.623529 0.470588 1.000000
0.592157 0.470588 1.000000
0.560784 0.470588 1.000000
0.529412 0.470588 1.000000
0.498039 0.470588 1.000000
0.470588 0.470588 1.000000
0.439216 0.470588 1.000000
0.407843 0.470588 1.000000
0.376471 0.470588 1.000000
0.345098 0.470588 1.000000
0.313725 0.470588 1.000000
0.282353 0.470588 1.000000
0.250980 0.470588 1.000000
0.219608 0.470588 1.000000
0.188235 0.470588 1.000000
0.156863 0.470588 1.000000
0.125490 0.470588 1.000000
0.094118 0.470588 1.000000
0.062745 0.470588 1.000000
0.031373 0.470588 1.000000
0.000000 0.470588 1.000000
1.000000 0.439216 1.000000
0.968627 0.439216 1.000000
0.937255 0.439216 1.000000
0.905882 0.439216 1.000000
0.874510 0.439216 1.000000
0.843137 0.439216 1.000000
0.811765 0.439216 1.000000
0.780392 0.439216 1.000000
0.749020 0.439216 1.000000
0.717647 0.439216 1.000000
0.686275 0.439216 1.000000
0.654902 0.439216 1.000000
0.623529 0.439216 1.000000
0.592157 0.439216 1.000000
0.560784 0.439216 1.000000
0.529412 0.439216 1.000000
0.498039 0.439216 1.000000
0.470588 0.439216 1.000000
0.439216 0.439216 1.000000
0.407843 0.439216 1.000000
0.376471 0.439216 1.000000
0.345098 0.439216 1.000000
0.313725 0.439216 1.000000
0.282353 0.439216 1.000000
0.250980 0.439216 1.000000
0.219608 0.439216 1.000000
0.188235 0.439216 1.000000
0.156863 0.439216 1.000000
0.125490 0.439216 1.000000
0.094118 0.439216 1.000000
0.062745 0.439216 1.000000
0.031373 0.439216 1.000000
0.000000 0.439216 1.000000
1.000000 0.407843 1.000000
0.968627 0.407843 1.000000
0.937255 0.407843 1.000000
0.905882 0.407843 1.000000
0.874510 0.407843 1.000000
0.843137 0.407843 1.000000
0.811765 0.407843 1.000000
0.780392 0.407843 1.000000
0.749020 0.407843 1.000000
0.717647 0.407843 1.000000
0.686275 0.407843 1.000000
0.654902 0.407843 1.000000
0.623529 0.407843 1.000000
0.592157 0.407843 1.000000
0.560784 0.407843 1.000000
0.529412 0.407843 1.000000
0.498039 0.407843 1.000000
0.470588 0.407843 1.000000
0.439216 0.407843 1.000000
0.407843 0.407843 1.000000
0.376471 0.407843 1.000000
0.345098 0.407843 1.000000
0.313725 0.407843 1.000000
0.282353 0.407843 1.000000
0.250980 0.407843 1.000000
0.219608 0.407843 1.000000
0.188235 0.407843 1.000000
0.156863 0.407843 1.000000
0.125490 0.407843 1.000000
0.094118 0.407843 1.000000
0.062745 0.407843 1.000000
0.031373 0.407843 1.000000
0.000000 0.407843 1.000000
1.000000 0.376471 1.000000
0.968627 0.376471 1.000000
0.937255 0.376471 1.000000
0.905882 0.376471 1.000000
0.874510 0.376471 1.000000
0.843137 0.376471 1.000000
0.811765 0.376471 1.000000
0.780392 0.376471 1.000000
0.749020 0.376471 1.000000
0.717647 0.376471 1.000000
0.686275 0.376471 1.000000
0.654902 0.376471 1.000000
0.623529 0.376471 1.000000
0.592157 0.376471 1.000000
0.560784 0.376471 1.000000
0.529412 0.376471 1.000000
0.498039 0.376471 1.000000
0.470588 0.376471 1.000000
0.439216 0.376471 1.000000
0.407843 0.376471 1.000000
0.376471 0.376471 1.000000
0.345098 0.376471 1.000000
0.313725 0.376471 1.000000
0.282353 0.376471 1.000000
0.250980 0.376471 1.000000
0.219608 0.376471 1.000000
0.188235 0.376471 1.000000
0.156863 0.376471 1.000000
0.125490 0.376471 1.000000
0.094118 0.376471 1.000000
0.062745 0.376471 1.000000
0.031373 0.376471 1.000000
0.000000 0.376471 1.000000
1.000000 0.345098 1.000000
0.968627 0.345098 1.000000
0.937255 0.345098 1.000000
0.905882 0.345098 1.000000
0.874510 0.345098 1.000000
0.843137 0.345098 1.000000
0.811765 0.345098 1.000000
0.780392 0.345098 1.000000
0.749020 0.345098 1.000000
0.717647 0.345098 1.000000
0.686275 0.345098 1.000000
0.654902 0.345098 1.000000
0.623529 0.345098 1.000000
0.592157 0.345098 1.000000
0.560784 0.345098 1.000000
0.529412 0.345098 1.000000
0.498039 0.345098 1.000000
0.470588 0.345098 1.000000
0.439216 0.345098 1.000000
0.407843 0.345098 1.000000
0.376471 0.345098 1.000000
0.345098 0.345098 1.000000
0.313725 0.345098 1.000000
0.282353 0.345098 1.000000
0.250980 0.345098 1.000000
0.219608 0.345098 1.000000
0.188235 0.345098 1.000000
0.156863 0.345098 1.000000
0.125490 0.345098 1.000000
0.094118 0.345098 1.000000
0.062745 0.345098 1.000000
0.031373 0.345098 1.000000
0.000000 0.345098 1.000000
1.000000 0.313725 1.000000
0.968627 0.313725 1.000000
0.937255 0.313725 1.000000
0.905882 0.313725 1.000000
0.874510 0.313725 1.000000
0.843137 0.313725 1.000000
0.811765 0.313725 1.000000
0.780392 0.313725 1.000000
0.749020 0.313725 1.000000
0.717647 0.313725 1.000000
0.686275 0.313725 1.000000
0.654902 0.313725 1.000000
0.623529 0.313725 1.000000
0.592157 0.313725 1.000000
0.560784 0.313725 1.000000
0.529412 0.313725 1.000000
0.498039 0.313725 1.000000
0.470588 0.313725 1.000000
0.439216 0.313725 1.000000
0.407843 0.313725 1.000000
0.376471 0.313725 1.000000
0.345098 0.313725 1.000000
0.313725 0.313725 1.000000
0.282353 0.313725 1.000000
0.250980 0.313725 1.000000
0.219608 0.313725 1.000000
0.188235 0.313725 1.000000
0.156863 0.313725 1.000000
0.125490 0.313725 1.000000
0.094118 0.313725 1.000000
0.062745 0.313725 1.000000
0.031373 0.313725 1.000000
0.000000 0.313725 1.000000
1.000000 0.282353 1.000000
0.968627 0.282353 1.000000
0.937255 0.282353 1.000000
0.905882 0.282353 1.000000
0.874510 0.282353 1.000000
0.843137 0.282353 1.000000
0.811765 0.282353 1.000000
0.780392 0.282353 1.000000
0.749020 0.282353 1.000000
0.717647 0.282353 1.000000
0.686275 0.282353 1.000000
0.654902 0.282353 1.000000
0.623529 0.282353 1.000000
0.592157 0.282353 1.000000
0.560784 0.282353 1.000000
0.529412 0.282353 1.000000
0.498039 0.282353 1.000000
0.470588 0.282353 1.000000
0.439216 0.282353 1.000000
0.407843 0.282353 1.000000
0.376471 0.282353 1.000000
0.345098 0.282353 1.000000
0.313725 0.282353 1.000000
0.282353 0.282353 1.000000
0.250980 0.282353 1.000000
0.219608 0.282353 1.000000
0.188235 0.282353 1.000000
0.156863 0.282353 1.000000
0.125490 0.282353 1.000000
0.094118 0.282353 1.000000
0.062745 0.282353 1.000000
0.031373 0.282353 1.000000
0.000000 0.282353 1.000000
1.000000 0.250980 1.000000
0.968627 0.250980 1.000000
0.937255 0.250980 1.000000
0.905882 0.250980 1.000000
0.874510 0.250980 1.000000
0.843137 0.250980 1.000000
0.811765 0.250980 1.000000
0.780392 0.250980 1.000000
0.749020 0.250980 1.000000
0.717647 0.250980 1.000000
0.686275 0.250980 1.000000
0.654902 0.250980 1.000000
0.623529 0.250980 1.000000
0.592157 0.250980 1.000000
0.560784 0.250980 1.000000
0.529412 0.250980 1.000000
0.498039 0.250980 1.000000
0.470588 0.250980 1.000000
0.439216 0.250980 1.000000
0.407843 0.250980 1.000000
0.376471 0.250980 1.000000
0.345098 0.250980 1.000000
0.313725 0.250980 1.000000
0.282353 0.250980 1.000000
0.250980 0.250980 1.000000
0.219608 0.250980 1.000000
0.188235 0.250980 1.000000
0.156863 0.250980 1.000000
0.125490 0.250980 1.000000
0.094118 0.250980 1.000000
0.062745 0.250980 1.000000
0.031373 0.250980 1.000000
0.000000 0.250980 1.000000
1.000000 0.219608 1.000000
0.968627 0.219608 1.000000
0.937255 0.219608 1.000000
0.905882 0.219608 1.000000
0.874510 0.219608 1.000000
0.843137 0.219608 1.000000
0.811765 0.219608 1.000000
0.780392 0.219608 1.000000
0.749020 0.219608 1.000000
0.717647 0.219608 1.000000
0.686275 0.219608 1.000000
0.654902 0.219608 1.000000
0.623529 0.219608 1.000000
0.592157 0.219608 1.000000
0.560784 0.219608 1.000000
0.529412 0.219608 1.000000
0.498039 0.219608 1.000000
0.470588 0.219608 1.000000
0.439216 0.219608 1.000000
0.407843 0.219608 1.000000
0.376471 0.219608 1.000000
0.345098 0.219608 1.000000
0.313725 0.219608 1.000000
0.282353 0.219608 1.000000
0.250980 0.219608 1.000000
0.219608 0.219608 1.000000
0.188235 0.219608 1.000000
0.156863 0.219608 1.000000
0.125490 0.219608 1.000000
0.094118 0.219608 1.000000
0.062745 0.219608 1.000000
0.031373 0.219608 1.000000
0.000000 0.219608 1.000000
1.000000 0.188235 1.000000
0.968627 0.188235 1.000000
0.937255 0.188235 1.000000
0.905882 0.188235 1.000000
0.874510 0.188235 1.000000
0.843137 0.188235 1.000000
0.811765 0.188235 1.000000
0.780392 0.188235 1.000000
0.749020 0.188235 1.000000
0.717647 0.188235 1.000000
0.686275 0.188235 1.000000
0.654902 0.188235 1.000000
0.623529 0.188235 1.000000
0.592157 0.188235 1.000000
0.560784 0.188235 1.000000
0.529412 0.188235 1.000000
0.498039 0.188235 1.000000
0.470588 0.188235 1.000000
0.439216 0.188235 1.000000
0.407843 0.188235 1.000000
0.376471 0.188235 1.000000
0.345098 0.188235 1.000000
0.313725 0.188235 1.000000
0.282353 0.188235 1.000000
0.250980 0.188235 1.000000
0.219608 0.188235 1.000000
0.188235 0.188235 1.000000
0.156863 0.188235 1.000000
0.125490 0.188235 1.000000
