LUTs/bw/bw_33.cube
TITLE "LUT"
LUT_3D_SIZE 5
0.000000 0.000000 0.000000
0.101961 0.101961 0.101961
0.200000 0.200000 0.200000
0.298039 0.298039 0.298039
0.415686 0.415686 0.415686
0.513725 0.513725 0.513725
0.211765 0.211765 0.211765
0.313725 0.313725 0.313725
0.411765 0.411765 0.411765
0.509804 0.509804 0.509804
1.000000 1.000000 1.000000
0.725490 0.725490 0.725490
0.427451 0.427451 0.427451
0.525490 0.525490 0.525490
0.607843 0.607843 0.607843
1.000000 1.000000 1.000000
1.000000 1.000000 1.000000
0.929412 0.929412 0.929412
0.635294 0.635294 0.635294
0.701961 0.701961 0.701961
1.000000 1.000000 1.000000
1.000000 1.000000 1.000000
1.000000 1.000000 1.000000
1.000000 1.000000 1.000000
0.796078 0.796078 0.796078
0.050980 0.050980 0.050980
0.200000 0.200000 0.200000
0.301961 0.301961 0.301961
0.400000 0.400000 0.400000
0.501961 0.501961 0.501961
0.149020 0.149020 0.149020
0.250980 0.250980 0.250980
0.352941 0.352941 0.352941
0.458824 0.458824 0.458824
0.545098 0.545098 0.545098
0.662745 0.662745 0.662745
0.764706 0.764706 0.764706
0.462745 0.462745 0.462745
0.552941 0.552941 0.552941
0.666667 0.666667 0.666667
1.000000 1.000000 1.000000
1.000000 1.000000 1.000000
0.898039 0.898039 0.898039
0.647059 0.647059 0.647059
0.784314 0.784314 0.784314
1.000000 1.000000 1.000000
1.000000 1.000000 1.000000
1.000000 1.000000 1.000000
1.000000 1.000000 1.000000
0.905882 0.905882 0.905882
0.101961 0.101961 0.101961
0.250980 0.250980 0.250980
0.400000 0.400000 0.400000
0.501961 0.501961 0.501961
0.584314 0.584314 0.584314
0.200000 0.200000 0.200000
0.301961 0.301961 0.301961
0.450980 0.450980 0.450980
0.541176 0.541176 0.541176
0.650980 0.650980 0.650980
0.301961 0.301961 0.301961
0.400000 0.400000 0.400000
0.501961 0.501961 0.501961
0.600000 0.600000 0.600000
0.686275 0.686275 0.686275
0.803922 0.803922 0.803922
0.843137 0.843137 0.843137
1.000000 1.000000 1.000000
0.717647 0.717647 0.717647
0.827451 0.827451 0.827451
1.000000 1.000000 1.000000
1.000000 1.000000 1.000000
1.000000 1.000000 1.000000
1.000000 1.000000 1.000000
0.972549 0.972549 0.972549
0.149020 0.149020 0.149020
0.301961 0.301961 0.301961
0.450980 0.450980 0.450980
0.600000 0.600000 0.600000
0.670588 0.670588 0.670588
0.250980 0.250980 0.250980
0.372549 0.372549 0.372549
0.501961 0.501961 0.501961
0.627451 0.627451 0.627451
0.756863 0.756863 0.756863
0.349020 0.349020 0.349020
0.458824 0.458824 0.458824
0.545098 0.545098 0.545098
0.705882 0.705882 0.705882
0.811765 0.811765 0.811765
0.450980 0.450980 0.450980
0.541176 0.541176 0.541176
0.650980 0.650980 0.650980
0.749020 0.749020 0.749020
0.835294 0.835294 0.835294
0.894118 0.894118 0.894118
1.000000 1.000000 1.000000
1.000000 1.000000 1.000000
1.000000 1.000000 1.000000
1.000000 1.000000 1.000000
0.243137 0.243137 0.243137
0.372549 0.372549 0.372549
0.501961 0.501961 0.501961
0.627451 0.627451 0.627451
0.756863 0.756863 0.756863
0.329412 0.329412 0.329412
0.388235 0.388235 0.388235
0.545098 0.545098 0.545098
0.705882 0.705882 0.705882
0.862745 0.862745 0.862745
0.415686 0.415686 0.415686
0.494118 0.494118 0.494118
0.560784 0.560784 0.560784
0.749020 0.749020 0.749020
0.941176 0.941176 0.941176
0.498039 0.498039 0.498039
0.600000 0.600000 0.600000
0.686275 0.686275 0.686275
0.760784 0.760784 0.760784
0.988235 0.988235 0.988235
0.584314 0.584314 0.584314
0.705882 0.705882 0.705882
0.815686 0.815686 0.815686
0.913725 0.913725 0.913725
1.000000 1.000000 1.000000
