LUTs/bw/bw_33.cube
TITLE "LUT"
LUT_3D_SIZE 9
0.000000 0.000000 0.000000
0.050980 0.050980 0.050980
0.101961 0.101961 0.101961
0.149020 0.149020 0.149020
0.200000 0.200000 0.200000
0.250980 0.250980 0.250980
0.298039 0.298039 0.298039
0.352941 0.352941 0.352941
0.415686 0.415686 0.415686
0.254902 0.254902 0.254902
0.105882 0.105882 0.105882
0.156863 0.156863 0.156863
0.207843 0.207843 0.207843
0.258824 0.258824 0.258824
0.305882 0.305882 0.305882
0.356863 0.356863 0.356863
0.407843 0.407843 0.407843
0.462745 0.462745 0.462745
0.513725 0.513725 0.513725
0.360784 0.360784 0.360784
0.211765 0.211765 0.211765
0.262745 0.262745 0.262745
0.313725 0.313725 0.313725
0.360784 0.360784 0.360784
0.411765 0.411765 0.411765
0.462745 0.462745 0.462745
0.509804 0.509804 0.509804
0.768627 0.768627 0.768627
0.619608 0.619608 0.619608
0.470588 0.470588 0.470588
0.321569 0.321569 0.321569
0.368627 0.368627 0.368627
0.419608 0.419608 0.419608
0.470588 0.470588 0.470588
0.513725 0.513725 0.513725
0.560784 0.560784 0.560784
1.000000 1.000000 1.000000
0.874510 0.874510 0.874510
0.725490 0.725490 0.725490
0.576471 0.576471 0.576471
0.427451 0.427451 0.427451
0.474510 0.474510 0.474510
0.525490 0.525490 0.525490
0.568627 0.568627 0.568627
0.607843 0.607843 0.607843
1.000000 1.000000 1.000000
1.000000 1.000000 1.000000
0.972549 0.972549 0.972549
0.823529 0.823529 0.823529
0.674510 0.674510 0.674510
0.529412 0.529412 0.529412
0.580392 0.580392 0.580392
0.623529 0.623529 0.623529
0.654902 0.654902 0.654902
1.000000 1.000000 1.000000
1.000000 1.000000 1.000000
1.000000 1.000000 1.000000
1.000000 1.000000 1.000000
0.929412 0.929412 0.929412
0.784314 0.784314 0.784314
0.635294 0.635294 0.635294
0.674510 0.674510 0.674510
0.701961 0.701961 0.701961
1.000000 1.000000 1.000000
1.000000 1.000000 1.000000
1.000000 1.000000 1.000000
1.000000 1.000000 1.000000
1.000000 1.000000 1.000000
1.000000 1.000000 1.000000
0.874510 0.874510 0.874510
0.729412 0.729412 0.729412
0.749020 0.749020 0.749020
1.000000 1.000000 1.000000
1.000000 1.000000 1.000000
1.000000 1.000000 1.000000
1.000000 1.000000 1.000000
1.000000 1.000000 1.000000
1.000000 1.000000 1.000000
1.000000 1.000000 1.000000
0.925490 0.925490 0.925490
0.796078 0.796078 0.796078
0.023529 0.023529 0.023529
0.101961 0.101961 0.101961
0.149020 0.149020 0.149020
0.200000 0.200000 0.200000
0.250980 0.250980 0.250980
0.298039 0.298039 0.298039
0.349020 0.349020 0.349020
0.400000 0.400000 0.400000
0.458824 0.458824 0.458824
0.074510 0.074510 0.074510
0.125490 0.125490 0.125490
0.176471 0.176471 0.176471
0.227451 0.227451 0.227451
0.274510 0.274510 0.274510
0.325490 0.325490 0.325490
0.376471 0.376471 0.376471
0.435294 0.435294 0.435294
0.478431 0.478431 0.478431
0.329412 0.329412 0.329412
0.380392 0.380392 0.380392
0.231373 0.231373 0.231373
0.282353 0.282353 0.282353
0.333333 0.333333 0.333333
0.380392 0.380392 0.380392
0.431373 0.431373 0.431373
0.486275 0.486275 0.486275
0.533333 0.533333 0.533333
0.588235 0.588235 0.588235
0.639216 0.639216 0.639216
0.486275 0.486275 0.486275
0.337255 0.337255 0.337255
0.388235 0.388235 0.388235
0.439216 0.439216 0.439216
0.486275 0.486275 0.486275
0.533333 0.533333 0.533333
0.588235 0.588235 0.588235
0.843137 0.843137 0.843137
0.894118 0.894118 0.894118
0.745098 0.745098 0.745098
0.596078 0.596078 0.596078
0.447059 0.447059 0.447059
0.494118 0.494118 0.494118
0.541176 0.541176 0.541176
0.580392 0.580392 0.580392
0.639216 0.639216 0.639216
1.000000 1.000000 1.000000
1.000000 1.000000 1.000000
0.992157 0.992157 0.992157
0.843137 0.843137 0.843137
0.694118 0.694118 0.694118
0.549020 0.549020 0.549020
0.592157 0.592157 0.592157
0.627451 0.627451 0.627451
0.694118 0.694118 0.694118
1.000000 1.000000 1.000000
1.000000 1.000000 1.000000
1.000000 1.000000 1.000000
1.000000 1.000000 1.000000
0.925490 0.925490 0.925490
0.788235 0.788235 0.788235
0.647059 0.647059 0.647059
0.674510 0.674510 0.674510
0.749020 0.749020 0.749020
1.000000 1.000000 1.000000
1.000000 1.000000 1.000000
1.000000 1.000000 1.000000
1.000000 1.000000 1.000000
1.000000 1.000000 1.000000
0.976471 0.976471 0.976471
0.850980 0.850980 0.850980
0.721569 0.721569 0.721569
0.800000 0.800000 0.800000
1.000000 1.000000 1.000000
1.000000 1.000000 1.000000
1.000000 1.000000 1.000000
1.000000 1.000000 1.000000
1.000000 1.000000 1.000000
1.000000 1.000000 1.000000
1.000000 1.000000 1.000000
1.000000 1.000000 1.000000
0.854902 0.854902 0.854902
0.050980 0.050980 0.050980
0.125490 0.125490 0.125490
0.200000 0.200000 0.200000
0.250980 0.250980 0.250980
0.301961 0.301961 0.301961
0.349020 0.349020 0.349020
0.400000 0.400000 0.400000
0.450980 0.450980 0.450980
0.501961 0.501961 0.501961
0.101961 0.101961 0.101961
0.149020 0.149020 0.149020
0.227451 0.227451 0.227451
0.274510 0.274510 0.274510
0.325490 0.325490 0.325490
0.376471 0.376471 0.376471
0.427451 0.427451 0.427451
0.478431 0.478431 0.478431
0.525490 0.525490 0.525490
0.149020 0.149020 0.149020
0.200000 0.200000 0.200000
0.250980 0.250980 0.250980
0.301961 0.301961 0.301961
0.352941 0.352941 0.352941
0.400000 0.400000 0.400000
0.458824 0.458824 0.458824
0.501961 0.501961 0.501961
0.545098 0.545098 0.545098
0.407843 0.407843 0.407843
0.454902 0.454902 0.454902
0.505882 0.505882 0.505882
0.356863 0.356863 0.356863
0.407843 0.407843 0.407843
0.454902 0.454902 0.454902
0.505882 0.505882 0.505882
0.556863 0.556863 0.556863
0.603922 0.603922 0.603922
0.662745 0.662745 0.662745
0.713725 0.713725 0.713725
0.764706 0.764706 0.764706
0.611765 0.611765 0.611765
0.462745 0.462745 0.462745
0.509804 0.509804 0.509804
0.552941 0.552941 0.552941
0.611765 0.611765 0.611765
0.666667 0.666667 0.666667
0.909804 0.909804 0.909804
0.960784 0.960784 0.960784
0.984314 0.984314 0.984314
0.843137 0.843137 0.843137
0.701961 0.701961 0.701961
0.560784 0.560784 0.560784
0.600000 0.600000 0.600000
0.662745 0.662745 0.662745
0.725490 0.725490 0.725490
1.000000 1.000000 1.000000
1.000000 1.000000 1.000000
1.000000 1.000000 1.000000
1.000000 1.000000 1.000000
0.898039 0.898039 0.898039
0.776471 0.776471 0.776471
0.647059 0.647059 0.647059
0.717647 0.717647 0.717647
0.784314 0.784314 0.784314
1.000000 1.000000 1.000000
1.000000 1.000000 1.000000
1.000000 1.000000 1.000000
1.000000 1.000000 1.000000
1.000000 1.000000 1.000000
1.000000 1.000000 1.000000
0.913725 0.913725 0.913725
0.772549 0.772549 0.772549
0.843137 0.843137 0.843137
1.000000 1.000000 1.000000
1.000000 1.000000 1.000000
1.000000 1.000000 1.000000
1.000000 1.000000 1.000000
1.000000 1.000000 1.000000
1.000000 1.000000 1.000000
1.000000 1.000000 1.000000
1.000000 1.000000 1.000000
0.905882 0.905882 0.905882
0.074510 0.074510 0.074510
0.149020 0.149020 0.149020
0.227451 0.227451 0.227451
0.301961 0.301961 0.301961
0.352941 0.352941 0.352941
0.400000 0.400000 0.400000
0.450980 0.450980 0.450980
0.498039 0.498039 0.498039
0.541176 0.541176 0.541176
0.125490 0.125490 0.125490
0.176471 0.176471 0.176471
0.250980 0.250980 0.250980
0.325490 0.325490 0.325490
0.376471 0.376471 0.376471
0.423529 0.423529 0.423529
0.474510 0.474510 0.474510
0.521569 0.521569 0.521569
0.576471 0.576471 0.576471
0.176471 0.176471 0.176471
0.227451 0.227451 0.227451
0.274510 0.274510 0.274510
0.352941 0.352941 0.352941
0.400000 0.400000 0.400000
0.450980 0.450980 0.450980
0.501961 0.501961 0.501961
0.552941 0.552941 0.552941
0.600000 0.600000 0.600000
0.227451 0.227451 0.227451
0.274510 0.274510 0.274510
0.325490 0.325490 0.325490
0.376471 0.376471 0.376471
0.427451 0.427451 0.427451
0.478431 0.478431 0.478431
0.525490 0.525490 0.525490
0.572549 0.572549 0.572549
0.615686 0.615686 0.615686
0.482353 0.482353 0.482353
0.533333 0.533333 0.533333
0.580392 0.580392 0.580392
0.623529 0.623529 0.623529
0.482353 0.482353 0.482353
0.525490 0.525490 0.525490
0.580392 0.580392 0.580392
0.631373 0.631373 0.631373
0.682353 0.682353 0.682353
0.729412 0.729412 0.729412
0.780392 0.780392 0.780392
0.811765 0.811765 0.811765
0.823529 0.823529 0.823529
0.698039 0.698039 0.698039
0.572549 0.572549 0.572549
0.635294 0.635294 0.635294
0.690196 0.690196 0.690196
0.745098 0.745098 0.745098
0.984314 0.984314 0.984314
1.000000 1.000000 1.000000
1.000000 1.000000 1.000000
1.000000 1.000000 1.000000
0.968627 0.968627 0.968627
0.831373 0.831373 0.831373
0.686275 0.686275 0.686275
0.749020 0.749020 0.749020
0.811765 0.811765 0.811765
1.000000 1.000000 1.000000
1.000000 1.000000 1.000000
1.000000 1.000000 1.000000
1.000000 1.000000 1.000000
1.000000 1.000000 1.000000
1.000000 1.000000 1.000000
0.968627 0.968627 0.968627
0.811765 0.811765 0.811765
0.878431 0.878431 0.878431
1.000000 1.000000 1.000000
1.000000 1.000000 1.000000
1.000000 1.000000 1.000000
1.000000 1.000000 1.000000
1.000000 1.000000 1.000000
1.000000 1.000000 1.000000
1.000000 1.000000 1.000000
1.000000 1.000000 1.000000
0.945098 0.945098 0.945098
0.101961 0.101961 0.101961
0.176471 0.176471 0.176471
0.250980 0.250980 0.250980
0.325490 0.325490 0.325490
0.400000 0.400000 0.400000
0.450980 0.450980 0.450980
0.501961 0.501961 0.501961
0.545098 0.545098 0.545098
0.584314 0.584314 0.584314
0.149020 0.149020 0.149020
0.200000 0.200000 0.200000
0.274510 0.274510 0.274510
0.352941 0.352941 0.352941
0.427451 0.427451 0.427451
0.474510 0.474510 0.474510
0.521569 0.521569 0.521569
0.564706 0.564706 0.564706
0.623529 0.623529 0.623529
0.200000 0.200000 0.200000
0.250980 0.250980 0.250980
0.301961 0.301961 0.301961
0.376471 0.376471 0.376471
0.450980 0.450980 0.450980
0.498039 0.498039 0.498039
0.541176 0.541176 0.541176
0.600000 0.600000 0.600000
0.650980 0.650980 0.650980
0.250980 0.250980 0.250980
0.301961 0.301961 0.301961
0.352941 0.352941 0.352941
0.403922 0.403922 0.403922
0.474510 0.474510 0.474510
0.521569 0.521569 0.521569
0.576471 0.576471 0.576471
0.627451 0.627451 0.627451
0.674510 0.674510 0.674510
0.301961 0.301961 0.301961
0.352941 0.352941 0.352941
0.400000 0.400000 0.400000
0.450980 0.450980 0.450980
0.501961 0.501961 0.501961
0.552941 0.552941 0.552941
0.600000 0.600000 0.600000
0.643137 0.643137 0.643137
0.686275 0.686275 0.686275
0.549020 0.549020 0.549020
0.600000 0.600000 0.600000
0.639216 0.639216 0.639216
0.670588 0.670588 0.670588
0.741176 0.741176 0.741176
0.603922 0.603922 0.603922
0.658824 0.658824 0.658824
0.709804 0.709804 0.709804
0.756863 0.756863 0.756863
0.803922 0.803922 0.803922
0.835294 0.835294 0.835294
0.843137 0.843137 0.843137
0.937255 0.937255 0.937255
1.000000 1.000000 1.000000
0.874510 0.874510 0.874510
0.717647 0.717647 0.717647
0.776471 0.776471 0.776471
0.827451 0.827451 0.827451
1.000000 1.000000 1.000000
1.000000 1.000000 1.000000
1.000000 1.000000 1.000000
1.000000 1.000000 1.000000
1.000000 1.000000 1.000000
1.000000 1.000000 1.000000
1.000000 1.000000 1.000000
0.839216 0.839216 0.839216
0.901961 0.901961 0.901961
1.000000 1.000000 1.000000
1.000000 1.000000 1.000000
1.000000 1.000000 1.000000
1.000000 1.000000 1.000000
1.000000 1.000000 1.000000
1.000000 1.000000 1.000000
1.000000 1.000000 1.000000
1.000000 1.000000 1.000000
0.972549 0.972549 0.972549
0.125490 0.125490 0.125490
0.200000 0.200000 0.200000
0.274510 0.274510 0.274510
0.349020 0.349020 0.349020
0.427451 0.427451 0.427451
0.498039 0.498039 0.498039
0.549020 0.549020 0.549020
0.592157 0.592157 0.592157
0.627451 0.627451 0.627451
0.176471 0.176471 0.176471
0.223529 0.223529 0.223529
0.301961 0.301961 0.301961
0.376471 0.376471 0.376471
0.450980 0.450980 0.450980
0.525490 0.525490 0.525490
0.568627 0.568627 0.568627
0.603922 0.603922 0.603922
0.670588 0.670588 0.670588
0.223529 0.223529 0.223529
0.274510 0.274510 0.274510
0.329412 0.329412 0.329412
0.403922 0.403922 0.403922
0.474510 0.474510 0.474510
0.545098 0.545098 0.545098
0.584314 0.584314 0.584314
0.647059 0.647059 0.647059
0.705882 0.705882 0.705882
0.274510 0.274510 0.274510
0.325490 0.325490 0.325490
0.376471 0.376471 0.376471
0.435294 0.435294 0.435294
0.501961 0.501961 0.501961
0.564706 0.564706 0.564706
0.623529 0.623529 0.623529
0.678431 0.678431 0.678431
0.729412 0.729412 0.729412
0.325490 0.325490 0.325490
0.376471 0.376471 0.376471
0.427451 0.427451 0.427451
0.478431 0.478431 0.478431
0.529412 0.529412 0.529412
0.596078 0.596078 0.596078
0.650980 0.650980 0.650980
0.701961 0.701961 0.701961
0.749020 0.749020 0.749020
0.372549 0.372549 0.372549
0.423529 0.423529 0.423529
0.474510 0.474510 0.474510
0.521569 0.521569 0.521569
0.572549 0.572549 0.572549
0.623529 0.623529 0.623529
0.670588 0.670588 0.670588
0.717647 0.717647 0.717647
0.760784 0.760784 0.760784
0.631373 0.631373 0.631373
0.670588 0.670588 0.670588
0.694118 0.694118 0.694118
0.772549 0.772549 0.772549
0.843137 0.843137 0.843137
0.909804 0.909804 0.909804
0.737255 0.737255 0.737255
0.788235 0.788235 0.788235
0.839216 0.839216 0.839216
0.866667 0.866667 0.866667
0.870588 0.870588 0.870588
0.968627 0.968627 0.968627
1.000000 1.000000 1.000000
1.000000 1.000000 1.000000
1.000000 1.000000 1.000000
1.000000 1.000000 1.000000
0.862745 0.862745 0.862745
0.913725 0.913725 0.913725
1.000000 1.000000 1.000000
1.000000 1.000000 1.000000
1.000000 1.000000 1.000000
1.000000 1.000000 1.000000
1.000000 1.000000 1.000000
1.000000 1.000000 1.000000
1.000000 1.000000 1.000000
1.000000 1.000000 1.000000
0.992157 0.992157 0.992157
0.149020 0.149020 0.149020
0.223529 0.223529 0.223529
0.301961 0.301961 0.301961
0.376471 0.376471 0.376471
0.450980 0.450980 0.450980
0.525490 0.525490 0.525490
0.600000 0.600000 0.600000
0.639216 0.639216 0.639216
0.670588 0.670588 0.670588
0.200000 0.200000 0.200000
0.258824 0.258824 0.258824
0.329412 0.329412 0.329412
0.403922 0.403922 0.403922
0.474510 0.474510 0.474510
0.545098 0.545098 0.545098
0.615686 0.615686 0.615686
0.647059 0.647059 0.647059
0.717647 0.717647 0.717647
0.250980 0.250980 0.250980
0.305882 0.305882 0.305882
0.372549 0.372549 0.372549
0.435294 0.435294 0.435294
0.501961 0.501961 0.501961
0.564706 0.564706 0.564706
0.627451 0.627451 0.627451
0.694118 0.694118 0.694118
0.756863 0.756863 0.756863
0.301961 0.301961 0.301961
0.352941 0.352941 0.352941
0.415686 0.415686 0.415686
0.454902 0.454902 0.454902
0.529412 0.529412 0.529412
0.596078 0.596078 0.596078
0.670588 0.670588 0.670588
0.729412 0.729412 0.729412
0.788235 0.788235 0.788235
0.349020 0.349020 0.349020
0.403922 0.403922 0.403922
0.458824 0.458824 0.458824
0.501961 0.501961 0.501961
0.545098 0.545098 0.545098
0.623529 0.623529 0.623529
0.705882 0.705882 0.705882
0.760784 0.760784 0.760784
0.811765 0.811765 0.811765
0.400000 0.400000 0.400000
0.447059 0.447059 0.447059
0.498039 0.498039 0.498039
0.549020 0.549020 0.549020
0.600000 0.600000 0.600000
0.643137 0.643137 0.643137
0.729412 0.729412 0.729412
0.780392 0.780392 0.780392
0.827451 0.827451 0.827451
0.450980 0.450980 0.450980
0.498039 0.498039 0.498039
0.541176 0.541176 0.541176
0.600000 0.600000 0.600000
0.650980 0.650980 0.650980
0.701961 0.701961 0.701961
0.749020 0.749020 0.749020
0.796078 0.796078 0.796078
0.835294 0.835294 0.835294
0.694118 0.694118 0.694118
0.717647 0.717647 0.717647
0.796078 0.796078 0.796078
0.870588 0.870588 0.870588
0.945098 0.945098 0.945098
1.000000 1.000000 1.000000
1.000000 1.000000 1.000000
0.870588 0.870588 0.870588
0.921569 0.921569 0.921569
0.894118 0.894118 0.894118
0.992157 0.992157 0.992157
1.000000 1.000000 1.000000
1.000000 1.000000 1.000000
1.000000 1.000000 1.000000
1.000000 1.000000 1.000000
1.000000 1.000000 1.000000
1.000000 1.000000 1.000000
1.000000 1.000000 1.000000
0.184314 0.184314 0.184314
0.258824 0.258824 0.258824
0.329412 0.329412 0.329412
0.403922 0.403922 0.403922
0.474510 0.474510 0.474510
0.545098 0.545098 0.545098
0.615686 0.615686 0.615686
0.686275 0.686275 0.686275
0.713725 0.713725 0.713725
0.235294 0.235294 0.235294
0.309804 0.309804 0.309804
0.372549 0.372549 0.372549
0.435294 0.435294 0.435294
0.501961 0.501961 0.501961
0.564706 0.564706 0.564706
0.627451 0.627451 0.627451
0.690196 0.690196 0.690196
0.764706 0.764706 0.764706
0.282353 0.282353 0.282353
0.352941 0.352941 0.352941
0.384314 0.384314 0.384314
0.454902 0.454902 0.454902
0.529412 0.529412 0.529412
0.596078 0.596078 0.596078
0.670588 0.670588 0.670588
0.741176 0.741176 0.741176
0.811765 0.811765 0.811765
0.329412 0.329412 0.329412
0.396078 0.396078 0.396078
0.431373 0.431373 0.431373
0.466667 0.466667 0.466667
0.545098 0.545098 0.545098
0.623529 0.623529 0.623529
0.705882 0.705882 0.705882
0.784314 0.784314 0.784314
0.847059 0.847059 0.847059
0.376471 0.376471 0.376471
0.435294 0.435294 0.435294
0.478431 0.478431 0.478431
0.521569 0.521569 0.521569
0.556863 0.556863 0.556863
0.643137 0.643137 0.643137
0.729412 0.729412 0.729412
0.819608 0.819608 0.819608
0.878431 0.878431 0.878431
0.423529 0.423529 0.423529
0.478431 0.478431 0.478431
0.525490 0.525490 0.525490
0.572549 0.572549 0.572549
0.615686 0.615686 0.615686
0.654902 0.654902 0.654902
0.749020 0.749020 0.749020
0.843137 0.843137 0.843137
0.898039 0.898039 0.898039
0.474510 0.474510 0.474510
0.521569 0.521569 0.521569
0.572549 0.572549 0.572549
0.623529 0.623529 0.623529
0.674510 0.674510 0.674510
0.717647 0.717647 0.717647
0.760784 0.760784 0.760784
0.862745 0.862745 0.862745
0.913725 0.913725 0.913725
0.521569 0.521569 0.521569
0.564706 0.564706 0.564706
0.623529 0.623529 0.623529
0.678431 0.678431 0.678431
0.733333 0.733333 0.733333
0.780392 0.780392 0.780392
0.827451 0.827451 0.827451
0.874510 0.874510 0.874510
0.917647 0.917647 0.917647
0.737255 0.737255 0.737255
0.819608 0.819608 0.819608
0.898039 0.898039 0.898039
0.972549 0.972549 0.972549
1.000000 1.000000 1.000000
1.000000 1.000000 1.000000
1.000000 1.000000 1.000000
1.000000 1.000000 1.000000
1.000000 1.000000 1.000000
0.243137 0.243137 0.243137
0.309804 0.309804 0.309804
0.372549 0.372549 0.372549
0.435294 0.435294 0.435294
0.501961 0.501961 0.501961
0.564706 0.564706 0.564706
0.627451 0.627451 0.627451
0.690196 0.690196 0.690196
0.756863 0.756863 0.756863
0.286275 0.286275 0.286275
0.309804 0.309804 0.309804
0.384314 0.384314 0.384314
0.454902 0.454902 0.454902
0.529412 0.529412 0.529412
0.596078 0.596078 0.596078
0.670588 0.670588 0.670588
0.741176 0.741176 0.741176
0.811765 0.811765 0.811765
0.329412 0.329412 0.329412
0.360784 0.360784 0.360784
0.388235 0.388235 0.388235
0.466667 0.466667 0.466667
0.545098 0.545098 0.545098
0.623529 0.623529 0.623529
0.705882 0.705882 0.705882
0.784314 0.784314 0.784314
0.862745 0.862745 0.862745
0.372549 0.372549 0.372549
0.407843 0.407843 0.407843
0.439216 0.439216 0.439216
0.470588 0.470588 0.470588
0.556863 0.556863 0.556863
0.643137 0.643137 0.643137
0.729412 0.729412 0.729412
0.819608 0.819608 0.819608
0.905882 0.905882 0.905882
0.415686 0.415686 0.415686
0.454902 0.454902 0.454902
0.494118 0.494118 0.494118
0.529412 0.529412 0.529412
0.560784 0.560784 0.560784
0.654902 0.654902 0.654902
0.749020 0.749020 0.749020
0.847059 0.847059 0.847059
0.941176 0.941176 0.941176
0.458824 0.458824 0.458824
0.501961 0.501961 0.501961
0.545098 0.545098 0.545098
0.584314 0.584314 0.584314
0.623529 0.623529 0.623529
0.654902 0.654902 0.654902
0.760784 0.760784 0.760784
0.862745 0.862745 0.862745
0.968627 0.968627 0.968627
0.498039 0.498039 0.498039
0.549020 0.549020 0.549020
0.600000 0.600000 0.600000
0.643137 0.643137 0.643137
0.686275 0.686275 0.686275
0.725490 0.725490 0.725490
0.760784 0.760784 0.760784
0.874510 0.874510 0.874510
0.988235 0.988235 0.988235
0.541176 0.541176 0.541176
0.600000 0.600000 0.600000
0.650980 0.650980 0.650980
0.701961 0.701961 0.701961
0.749020 0.749020 0.749020
0.796078 0.796078 0.796078
0.835294 0.835294 0.835294
0.878431 0.878431 0.878431
0.996078 0.996078 0.996078
0.584314 0.584314 0.584314
0.647059 0.647059 0.647059
0.705882 0.705882 0.705882
0.760784 0.760784 0.760784
0.815686 0.815686 0.815686
0.862745 0.862745 0.862745
0.913725 0.913725 0.913725
0.956863 0.956863 0.956863
1.000000 1.000000 1.000000
